X:1062
T:Lay Dee at Dee
R:reel
D:The Silver Bow
O:Shetland
Z:id:hn-reel-1062
M:C|
L:1/8
K:D
A | defe d2d2 | ABAG FED2 | d2ef gfed | efed cBA2 |
defe d2d2 | ABAG FED2 | d2ef gfec | e2d2 d3 :|
|: e | f2df afdf | afdf g3f | e2ce Aece | edcB A3e |
f2df afdf | afdf g3f | efgf edcB | A2d2 d3 :|

